X:28
T:Captain Pearse (Houghton)
%%VWML:SBG-1-2-416-0
F:http://www.vwml.org/record/SBG/1/2/416
Z:Original Sibelius transcriptions by M. & S. Graebe
M:3/4
I:linebreak $
K:G
V:1 treble nm="P1"
V:1
 D/E/F/ | G G B | B B d | c B G | G2 B | d B B | c c e/d/ | d c B |$ G2 B | d d B | c c A | d G F | %12
 F2 D | G G A | B c d | c A G | G4 | %17

